icons/svgs/search-solid.svg

<svg width="24" height="24" viewBox="0 0 24 24" fill="none" xmlns="http://www.w3.org/2000/svg">
<path d="M18.2579 10.1131C18.2579 11.9074 17.6717 13.5846 16.6947 14.9108L21.619 19.8645C22.127 20.3325 22.127 21.1516 21.619 21.6197C21.15 22.1268 20.3293 22.1268 19.8603 21.6197L14.8969 16.666C13.5681 17.6802 11.8876 18.2262 10.129 18.2262C5.63459 18.2262 2 14.5987 2 10.1131C2 5.6665 5.63459 2 10.129 2C14.5843 2 18.2579 5.6665 18.2579 10.1131ZM10.129 15.7299C12.1221 15.7299 13.959 14.6767 14.9751 12.9215C15.9912 11.2053 15.9912 9.05997 14.9751 7.30473C13.959 5.58849 12.1221 4.49634 10.129 4.49634C8.09673 4.49634 6.25989 5.58849 5.24377 7.30473C4.22765 9.05997 4.22765 11.2053 5.24377 12.9215C6.25989 14.6767 8.09673 15.7299 10.129 15.7299Z" fill="black"/>
</svg>

<svg xmlns="http://www.w3.org/2000/svg" width="24" height="24" fill="currentColor" class="icon-search-solid" viewBox="0 0 24 24">
  <mask id="a" width="20" height="20" x="2" y="2" maskUnits="userSpaceOnUse" style="mask-type:alpha">
    <path d="M18.258 10.113a8.1 8.1 0 0 1-1.563 4.798l4.924 4.954a1.2 1.2 0 0 1 0 1.755 1.207 1.207 0 0 1-1.759 0l-4.963-4.954c-1.329 1.014-3.01 1.56-4.768 1.56C5.635 18.226 2 14.6 2 10.113 2 5.667 5.635 2 10.129 2c4.455 0 8.129 3.667 8.129 8.113m-8.129 5.617a5.58 5.58 0 0 0 4.846-2.809c1.016-1.716 1.016-3.861 0-5.616-1.016-1.717-2.853-2.809-4.846-2.809a5.68 5.68 0 0 0-4.885 2.809c-1.016 1.755-1.016 3.9 0 5.617a5.6 5.6 0 0 0 4.885 2.808"/>
  </mask>
  <g mask="url(#a)">
    <path d="M0 0h24v24H0z"/>
  </g>
</svg>
